**kern	**kern	**dynam
*part1	*part1	*part1
*staff2	*staff1	*
*I"Piano	*	*
*clefF4	*clefG2	*
*k[b-e-a-]	*k[b-e-a-]	*
=1	=1	=1
*	*^	*
(4.E- [4.c	4cc]	4.g	sf
.	[8cc	.	.
=	=	=	=
4.F 4.c_	4cc]	4.a-	.
.	[8cc	.	.
=	=	=	=
!	!LO:TX:a:i:t=dim.	!	!
4.E- 4.c_	8ccL]	4.g	.
.	8dd	.	.
.	8ccJ	.	.
*	*v	*v	*
=	=	=
.	16qqf/LL	sf
.	16qqcc/JJ	.
4.D) 4.c_	(4ccc	.
.	8aa-	.
=	=	=
*^	*	*
4f	4.D 4.c]	4ff	.
8a-	.	8dd)	.
=	=	=	=
*	*	*^	*
4.g	[4.G 4.e-	4.cc:	[4.a-:	sf
=	=	=	=	=
4.f	4.G;] 4.d	4.bn;	4a-]	.
.	.	.	8g	.
=	=	=	=	=
[4.c	4A-	4cc	4.en	.
.	8G	8b-X	.	.
=	=	=	=	=
4c]	(4.F	4an	4f	.
16ryy	.	16ryy	8d	.
16Bn	.	16a-X	.	.
=	=	=	=	=
8r	4.C)	[4.g	[4.en	.
(28G	.	.	.	.
28en	.	.	.	.
28c	.	.	.	.
28G	.	.	.	.
28En	.	.	.	.
[28C	.	.	.	.
[28GG)	.	.	.	.
*v	*v	*	*	*
=	=	=	=
4CC; 4GG] 4C]	4g;]	4e]	.
8r	8r	8ryy	.
*	*v	*v	*
==	==	==
*-	*-	*-
!!!system-decoration: {(s1,s2)}
